web/packages/design/src/ResourceIcon/assets/notion.svg

<svg width="72" height="72" viewBox="0 0 72 72" fill="none" xmlns="http://www.w3.org/2000/svg">
<g clip-path="url(#clip0_16907_11764)">
<path fill-rule="evenodd" clip-rule="evenodd" d="M6.93132 2.94185L44.5584 0.162882C46.8538 -0.0338446 48.5884 -0.100578 50.1618 0.257031C51.803 0.630032 53.0926 1.42076 54.5966 2.51334L66.6117 10.9777L66.6277 10.9894C66.7305 11.0649 66.8341 11.1405 66.9378 11.2161C67.711 11.7799 68.4908 12.3485 69.0225 12.9659C69.8149 13.8863 70.0843 14.8809 70.0843 16.0375V62.4424C70.0843 64.0816 69.7978 65.8329 68.5965 67.2002C67.3779 68.5871 65.5755 69.1793 63.4731 69.3288L63.4625 69.3295L19.7449 71.9761L19.7318 71.9767C18.2771 72.0457 16.9249 71.9979 15.68 71.5424C14.3664 71.0618 13.3904 70.2124 12.5149 69.0965L12.5089 69.0889L3.651 57.5704L3.64356 57.5605C1.9167 55.2563 1 53.2557 1 50.8077V9.55942C1 8.1045 1.31984 6.52161 2.32979 5.22526C3.38066 3.87639 4.96312 3.11235 6.91867 2.94294L6.93132 2.94185Z" fill="white"/>
<path fill-rule="evenodd" clip-rule="evenodd" d="M44.7175 2.15654L7.09129 4.93544C4.05625 5.19837 3 7.18168 3 9.55939V50.8077C3 52.6596 3.65733 54.2439 5.24397 56.361L14.0884 67.8619C15.5413 69.7138 16.8628 70.1104 19.6371 69.979L63.3312 67.3338C67.0258 67.0709 68.0843 65.3505 68.0843 62.4424V16.0374C68.0843 14.5347 67.4905 14.1017 65.7429 12.8188C65.6423 12.7464 65.5418 12.6738 65.4414 12.6012L53.4327 4.13985C50.5269 2.02734 49.3392 1.75988 44.7175 2.15654ZM20.6254 15.2781C17.0577 15.5184 16.2485 15.5728 14.2221 13.9249L9.07006 9.82685C8.54647 9.29646 8.8094 8.6346 10.1286 8.50313L46.2996 5.86023C49.3369 5.59503 50.919 6.65356 52.1068 7.57834L58.3106 12.0731C58.5758 12.2068 59.2353 12.9979 58.442 12.9979L21.0878 15.2464L20.6254 15.2781ZM16.4661 62.0457V22.6515C16.4661 20.9311 16.9942 20.1378 18.5764 20.0041L61.4793 17.4926C62.9345 17.3612 63.5918 18.286 63.5918 20.0041V59.1353C63.5918 60.8557 63.3266 62.3109 60.9512 62.4424L19.8955 64.8223C17.5201 64.9538 16.4661 64.1628 16.4661 62.0457ZM56.9936 24.764C57.2566 25.954 56.9936 27.144 55.8037 27.28L53.8249 27.6721V56.7576C52.1068 57.6824 50.5247 58.2106 49.2032 58.2106C47.0907 58.2106 46.5626 57.5487 44.9804 55.5677L32.0402 35.2087V54.9058L36.1337 55.8329C36.1337 55.8329 36.1338 58.2128 32.8313 58.2128L23.7262 58.7409C23.461 58.2106 23.7262 56.8891 24.6487 56.6262L27.0264 55.9666V29.9229L23.7262 29.6554C23.461 28.4654 24.1206 26.7473 25.9701 26.6136L35.7394 25.9563L49.2032 46.5782V28.334L45.7715 27.9396C45.5063 26.4821 46.5626 25.4236 47.8817 25.2944L56.9936 24.764Z" fill="black"/>
</g>
<defs>
<clipPath id="clip0_16907_11764">
<rect width="72" height="72" fill="white" transform="translate(0 0.00195312)"/>
</clipPath>
</defs>
</svg>

<svg xmlns="http://www.w3.org/2000/svg" width="72" height="72" fill="none" viewBox="0 0 72 72"><g fill-rule="evenodd" clip-path="url(#clip0_16907_11764)" clip-rule="evenodd"><path fill="#fff" d="M6.931 2.942 44.558.162c2.296-.196 4.03-.263 5.604.095 1.641.373 2.93 1.164 4.435 2.256l12.015 8.465.016.011.31.227c.773.564 1.553 1.133 2.084 1.75.793.92 1.062 1.915 1.062 3.072v46.404c0 1.64-.286 3.39-1.487 4.758-1.22 1.387-3.021 1.98-5.124 2.129h-.01l-43.718 2.647h-.013c-1.455.07-2.807.022-4.052-.434-1.314-.48-2.29-1.33-3.165-2.445l-.006-.008L3.65 57.57l-.007-.01C1.917 55.256 1 53.256 1 50.808V9.559c0-1.454.32-3.037 1.33-4.334 1.05-1.349 2.633-2.113 4.589-2.282z"/><path fill="#000" d="M44.718 2.157 7.09 4.935C4.056 5.198 3 7.182 3 9.56v41.249c0 1.852.657 3.436 2.244 5.553l8.844 11.5c1.453 1.853 2.775 2.25 5.55 2.118l43.693-2.645c3.695-.263 4.753-1.984 4.753-4.892V16.037c0-1.502-.594-1.935-2.341-3.218l-.302-.218L53.433 4.14c-2.906-2.113-4.094-2.38-8.715-1.983M20.625 15.278c-3.567.24-4.376.295-6.403-1.353L9.07 9.827c-.524-.53-.26-1.192 1.059-1.324l36.17-2.643c3.038-.265 4.62.794 5.808 1.718l6.204 4.495c.265.134.924.925.131.925l-37.354 2.248zm-4.159 46.768V22.652c0-1.72.528-2.514 2.11-2.648l42.903-2.511c1.456-.132 2.113.793 2.113 2.511v39.131c0 1.72-.265 3.176-2.64 3.307l-41.056 2.38c-2.376.132-3.43-.66-3.43-2.776m40.528-37.282c.263 1.19 0 2.38-1.19 2.516l-1.98.392v29.086c-1.717.924-3.3 1.453-4.62 1.453-2.113 0-2.641-.662-4.224-2.643l-12.94-20.36v19.698l4.094.927s0 2.38-3.303 2.38l-9.105.528c-.265-.53 0-1.852.923-2.115l2.377-.66V29.924l-3.3-.268c-.265-1.19.395-2.908 2.244-3.041l9.77-.658 13.463 20.622V28.334l-3.431-.394c-.266-1.458.79-2.516 2.11-2.646z"/></g><defs><clipPath id="clip0_16907_11764"><path fill="#fff" d="M0 .002h72v72H0z"/></clipPath></defs></svg>
